svgs/duotone/alarm-plus.svg

<svg xmlns="http://www.w3.org/2000/svg" viewBox="0 0 512 512"><!--! Font Awesome Pro 6.4.2 by @fontawesome - https://fontawesome.com License - https://fontawesome.com/license (Commercial License) Copyright 2023 Fonticons, Inc. --><path class="fa-primary" style="fill:var(--fa-primary-color,inherit);opacity:var(--fa-primary-opacity,1);" d="M14.9 146.4L160 25.4C143 9.6 120.2 0 95.2 0C42.6 0 0 42.6 0 95.2c0 18.8 5.5 36.3 14.9 51.1zM280 200c0-13.3-10.7-24-24-24s-24 10.7-24 24v64H168c-13.3 0-24 10.7-24 24s10.7 24 24 24h64v64c0 13.3 10.7 24 24 24s24-10.7 24-24V312h64c13.3 0 24-10.7 24-24s-10.7-24-24-24H280V200zM352 25.4L497.1 146.4C506.5 131.6 512 114 512 95.2C512 42.6 469.4 0 416.8 0C391.8 0 369 9.6 352 25.4z"/><path class="fa-secondary" style="fill:var(--fa-secondary-color,inherit);opacity:var(--fa-secondary-opacity,.4);" d="M390.2 467.4C352.8 495.4 306.3 512 256 512s-96.8-16.6-134.1-44.6L86.6 502.6c-12.5 12.5-32.8 12.5-45.3 0s-12.5-32.8 0-45.3l35.2-35.2C48.6 384.8 32 338.3 32 288C32 164.3 132.3 64 256 64s224 100.3 224 224c0 50.3-16.6 96.8-44.6 134.2l35.2 35.2c12.5 12.5 12.5 32.8 0 45.3s-32.8 12.5-45.3 0l-35.2-35.2zM256 176c-13.3 0-24 10.7-24 24v64H168c-13.3 0-24 10.7-24 24s10.7 24 24 24h64v64c0 13.3 10.7 24 24 24s24-10.7 24-24V312h64c13.3 0 24-10.7 24-24s-10.7-24-24-24H280V200c0-13.3-10.7-24-24-24z"/></svg>

<svg xmlns="http://www.w3.org/2000/svg" viewBox="0 0 512 512"><!--! Font Awesome Pro 6.1.1 by @fontawesome - https://fontawesome.com License - https://fontawesome.com/license (Commercial License) Copyright 2022 Fonticons, Inc. --><defs><style>.fa-secondary{opacity:.4}</style></defs><path class="fa-primary" d="M0 95.24C0 42.64 42.64 0 95.24 0C120.2 0 143 9.638 160 25.4L14.86 146.4C5.452 131.6 0 114.1 0 95.24zM280 264H344C357.3 264 368 274.7 368 288C368 301.3 357.3 312 344 312H280V376C280 389.3 269.3 400 256 400C242.7 400 232 389.3 232 376V312H168C154.7 312 144 301.3 144 288C144 274.7 154.7 264 168 264H232V200C232 186.7 242.7 176 256 176C269.3 176 280 186.7 280 200V264zM416.8 0C469.4 0 512 42.64 512 95.24C512 114 506.5 131.6 497.1 146.4L352 25.4C368.1 9.638 391.8 0 416.8 0z"/><path class="fa-secondary" d="M390.2 467.4C352.8 495.4 306.3 512 256 512C205.7 512 159.2 495.4 121.9 467.4L86.63 502.6C74.13 515.1 53.87 515.1 41.37 502.6C28.88 490.1 28.88 469.9 41.37 457.4L76.6 422.2C48.59 384.8 32 338.3 32 288C32 164.3 132.3 64 256 64C379.7 64 480 164.3 480 288C480 338.3 463.4 384.8 435.4 422.2L470.6 457.4C483.1 469.9 483.1 490.1 470.6 502.6C458.1 515.1 437.9 515.1 425.4 502.6L390.2 467.4zM232 200V264H168C154.7 264 144 274.7 144 288C144 301.3 154.7 312 168 312H232V376C232 389.3 242.7 400 256 400C269.3 400 280 389.3 280 376V312H344C357.3 312 368 301.3 368 288C368 274.7 357.3 264 344 264H280V200C280 186.7 269.3 176 256 176C242.7 176 232 186.7 232 200z"/></svg>
